public/img/icons/data-trends-icon.svg

<svg fill="none" height="60" viewBox="0 0 56 60" width="56" xmlns="http://www.w3.org/2000/svg"><path d="m1 7h54v32c0 1.105-.895 2-2 2h-50c-1.105 0-2-.895-2-2z" fill="#fff"/><g fill="#000"><path d="m11.494 20.0331v15.2164c0 1.2407-.484 2.2287-1.078 2.2287h-4.92198c-.594 0-1.078-.988-1.078-2.2287v-15.2164c0-1.2101.484-2.1962 1.078-2.1962h4.92198c.594.0326 1.078.9861 1.078 2.1962z"/><path d="m19.509 15.549v17.27c0 .9234-.484 1.6587-1.078 1.6587h-4.922c-.609 0-1.094-.7353-1.094-1.6587v-17.27c0-.9005.485-1.6343 1.094-1.6343h4.922c.594 0 1.078.7338 1.078 1.6343z"/><path d="m27.681 16.6009v9.781c0 .61-.484 1.094-1.078 1.094h-4.922c-.594 0-1.078-.484-1.078-1.094v-9.781c0-.594.484-1.078 1.078-1.078h4.922c.609.016 1.078.484 1.078 1.078z"/><path d="m35.791 10.2259v16.172c0 .609-.484 1.094-1.078 1.094h-4.813c-.593 0-1.078-.485-1.078-1.094v-16.172c0-.59395.485-1.07795 1.078-1.07795h4.813c.594 0 1.078.484 1.078 1.07795z"/></g><path d="m1 29v-22h54v32c0 1.105-.895 2-2 2h-50c-1.105 0-2-.895-2-2v-6" stroke="#000" stroke-linecap="round" stroke-linejoin="round" stroke-width="2"/><path d="m43 1h-40c-1.105 0-2 .895-2 2v4h54v-4c0-1.105-.895-2-2-2h-6" stroke="#000" stroke-linecap="round" stroke-linejoin="round" stroke-width="2"/><path d="m5 5c.55228 0 1-.44772 1-1s-.44772-1-1-1-1 .44772-1 1 .44772 1 1 1z" fill="#000"/><path d="m8 5c.55228 0 1-.44772 1-1s-.44772-1-1-1-1 .44772-1 1 .44772 1 1 1z" fill="#000"/><path d="m11 5c.5523 0 1-.44772 1-1s-.4477-1-1-1-1 .44772-1 1 .4477 1 1 1z" fill="#000"/><path d="m31 25c-8.837 0-16 7.163-16 16h32c0-8.837-7.163-16-16-16z" fill="#000" stroke="#000" stroke-width="2"/><path d="m28 55c8.8366 0 16-7.1634 16-16s-7.1634-16-16-16-16 7.1634-16 16 7.1634 16 16 16z" fill="#fff"/><path d="m14.141 47c-1.362-2.353-2.141-5.086-2.141-8 0-8.837 7.163-16 16-16s16 7.163 16 16-7.163 16-16 16c-3.615 0-6.951-1.199-9.63-3.222" stroke="#000" stroke-linecap="round" stroke-width="2"/><path d="m40.4401 15.006h10" stroke="#000" stroke-linecap="round" stroke-width="2"/><path d="m40.4401 23.006h10" stroke="#000" stroke-linecap="round" stroke-width="2"/><path d="m40.4401 19.006h6" stroke="#000" stroke-linecap="round" stroke-width="2"/><path d="m29.4662 42.085c.3505.3287.7887.5145 1.2598.5145.4816 0 .9309-.1858 1.2597-.5363.4816-.4823.6351-1.2268.394-1.8731l3.9102-4.2173c.1977.0771.3835.11.5917.11.4823 0 .931-.1864 1.271-.5257.6898-.7011.6898-1.8402 0-2.5307-.34-.3393-.7887-.5258-1.2598-.5258s-.9204.1865-1.2485.5146c-.504.4935-.6575 1.2267-.3947 1.8843l-3.932 4.2061c-.1977-.0659-.3834-.0988-.5804-.0988-.4711 0-.9205.1864-1.2598.5257l-.0329.033-3.0565-.9197c-.0652-.3618-.2187-.6681-.4486-.8981-.34-.3399-.7887-.5152-1.271-.5152-.4816 0-.9197.1865-1.2597.5258-.3281.3287-.5258.7886-.5258 1.2597 0 .164.0225.3176.0659.4928l-3.6144 2.4865c-.2846-.164-.6022-.2516-.931-.2516-.4598 0-.898.1752-1.2162.5033-.6899.701-.6899 1.8402 0 2.5307.3399.3393.7886.5257 1.2597.5257s.9309-.1864 1.2597-.5257c.3947-.3947.5699-.9639.4711-1.5339l3.768-2.5846c.2411.1093.4711.164.701.164.4823 0 .931-.1857 1.2597-.5257.0435-.0435.0765-.0877.1206-.1536l2.9247.8875c.0547.3835.2299.7669.5145 1.0516z" fill="#000"/></svg>

<svg width="56" height="60" viewBox="0 0 56 60" fill="none" xmlns="http://www.w3.org/2000/svg">
<path d="M1 7H55V39C55 40.105 54.105 41 53 41H3C1.895 41 1 40.105 1 39V7Z" fill="white"/>
<path d="M11.494 20.0331V35.2495C11.494 36.4902 11.01 37.4782 10.416 37.4782H5.49402C4.90002 37.4782 4.41602 36.4902 4.41602 35.2495V20.0331C4.41602 18.823 4.90002 17.8369 5.49402 17.8369H10.416C11.01 17.8695 11.494 18.823 11.494 20.0331Z" fill="black"/>
<path d="M19.509 15.549V32.819C19.509 33.7424 19.025 34.4777 18.431 34.4777H13.509C12.9 34.4777 12.415 33.7424 12.415 32.819V15.549C12.415 14.6485 12.9 13.9147 13.509 13.9147H18.431C19.025 13.9147 19.509 14.6485 19.509 15.549Z" fill="black"/>
<path d="M27.681 16.6009V26.3819C27.681 26.9919 27.197 27.4759 26.603 27.4759H21.681C21.087 27.4759 20.603 26.9919 20.603 26.3819V16.6009C20.603 16.0069 21.087 15.5229 21.681 15.5229H26.603C27.212 15.5389 27.681 16.0069 27.681 16.6009Z" fill="black"/>
<path d="M35.791 10.2259V26.3979C35.791 27.0069 35.307 27.4919 34.713 27.4919H29.9C29.307 27.4919 28.822 27.0069 28.822 26.3979V10.2259C28.822 9.63195 29.307 9.14795 29.9 9.14795H34.713C35.307 9.14795 35.791 9.63195 35.791 10.2259Z" fill="black"/>
<path d="M1 29V7H55V39C55 40.105 54.105 41 53 41H3C1.895 41 1 40.105 1 39V33" stroke="black" stroke-width="2" stroke-linecap="round" stroke-linejoin="round"/>
<path d="M43 1H3C1.895 1 1 1.895 1 3V7H55V3C55 1.895 54.105 1 53 1H47" stroke="black" stroke-width="2" stroke-linecap="round" stroke-linejoin="round"/>
<path d="M5 5C5.55228 5 6 4.55228 6 4C6 3.44772 5.55228 3 5 3C4.44772 3 4 3.44772 4 4C4 4.55228 4.44772 5 5 5Z" fill="black"/>
<path d="M8 5C8.55228 5 9 4.55228 9 4C9 3.44772 8.55228 3 8 3C7.44772 3 7 3.44772 7 4C7 4.55228 7.44772 5 8 5Z" fill="black"/>
<path d="M11 5C11.5523 5 12 4.55228 12 4C12 3.44772 11.5523 3 11 3C10.4477 3 10 3.44772 10 4C10 4.55228 10.4477 5 11 5Z" fill="black"/>
<path d="M31 25C22.163 25 15 32.163 15 41H47C47 32.163 39.837 25 31 25Z" fill="black" stroke="black" stroke-width="2"/>
<path d="M28 55C36.8366 55 44 47.8366 44 39C44 30.1634 36.8366 23 28 23C19.1634 23 12 30.1634 12 39C12 47.8366 19.1634 55 28 55Z" fill="white"/>
<path d="M14.141 47C12.779 44.647 12 41.914 12 39C12 30.163 19.163 23 28 23C36.837 23 44 30.163 44 39C44 47.837 36.837 55 28 55C24.385 55 21.049 53.801 18.37 51.778" stroke="black" stroke-width="2" stroke-linecap="round"/>
<path d="M40.4401 15.006H50.4401" stroke="black" stroke-width="2" stroke-linecap="round"/>
<path d="M40.4401 23.006H50.4401" stroke="black" stroke-width="2" stroke-linecap="round"/>
<path d="M40.4401 19.006H46.4401" stroke="black" stroke-width="2" stroke-linecap="round"/>
<path d="M29.4662 42.085C29.8167 42.4137 30.2549 42.5995 30.726 42.5995C31.2076 42.5995 31.6569 42.4137 31.9857 42.0632C32.4673 41.5809 32.6208 40.8364 32.3797 40.1901L36.2899 35.9728C36.4876 36.0499 36.6734 36.0828 36.8816 36.0828C37.3639 36.0828 37.8126 35.8964 38.1526 35.5571C38.8424 34.856 38.8424 33.7169 38.1526 33.0264C37.8126 32.6871 37.3639 32.5006 36.8928 32.5006C36.4217 32.5006 35.9724 32.6871 35.6443 33.0152C35.1403 33.5087 34.9868 34.2419 35.2496 34.8995L31.3176 39.1056C31.1199 39.0397 30.9342 39.0068 30.7372 39.0068C30.2661 39.0068 29.8167 39.1932 29.4774 39.5325L29.4445 39.5655L26.388 38.6458C26.3228 38.284 26.1693 37.9777 25.9394 37.7477C25.5994 37.4078 25.1507 37.2325 24.6684 37.2325C24.1868 37.2325 23.7487 37.419 23.4087 37.7583C23.0806 38.087 22.8829 38.5469 22.8829 39.018C22.8829 39.182 22.9054 39.3356 22.9488 39.5108L19.3344 41.9973C19.0498 41.8333 18.7322 41.7457 18.4034 41.7457C17.9436 41.7457 17.5054 41.9209 17.1872 42.249C16.4973 42.95 16.4973 44.0892 17.1872 44.7797C17.5271 45.119 17.9758 45.3054 18.4469 45.3054C18.918 45.3054 19.3778 45.119 19.7066 44.7797C20.1013 44.385 20.2765 43.8158 20.1777 43.2458L23.9457 40.6612C24.1868 40.7705 24.4168 40.8252 24.6467 40.8252C25.129 40.8252 25.5777 40.6395 25.9064 40.2995C25.9499 40.256 25.9829 40.2118 26.027 40.1459L28.9517 41.0334C29.0064 41.4169 29.1816 41.8003 29.4662 42.085Z" fill="black"/>
</svg>
